src/extras-openmoji/objects/E152.svg

<svg id="emoji" viewBox="0 0 72 72" xmlns="http://www.w3.org/2000/svg">
  <g id="grid">
    <path fill="#B3B3B3" d="M68 4V68H4V4H68ZM72 0H0V72H72V0Z"/>
    <path fill="none" stroke="#00A5FF" stroke-miterlimit="10" stroke-width="0.1" d="M12.923 10.9583H59.0769C59.5869 10.9583 60.0761 11.1609 60.4367 11.5216C60.7974 11.8822 61 12.3714 61 12.8814V59.0352C61 59.5452 60.7974 60.0344 60.4367 60.3951C60.0761 60.7557 59.5869 60.9583 59.0769 60.9583H12.9231C12.4131 60.9583 11.9239 60.7557 11.5633 60.3951C11.2026 60.0344 11 59.5452 11 59.0352V12.8813C11 12.3713 11.2026 11.8822 11.5632 11.5215C11.9239 11.1609 12.413 10.9583 12.923 10.9583V10.9583Z"/>
    <path fill="none" stroke="#00A5FF" stroke-miterlimit="10" stroke-width="0.1" d="M53.7463 4H18.2537C17.009 4 16 5.00902 16 6.2537V65.7463C16 66.991 17.009 68 18.2537 68H53.7463C54.991 68 56 66.991 56 65.7463V6.2537C56 5.00902 54.991 4 53.7463 4Z"/>
    <path fill="none" stroke="#00A5FF" stroke-miterlimit="10" stroke-width="0.1" d="M68 53.7463V18.2537C68 17.009 66.991 16 65.7463 16L6.2537 16C5.00902 16 4 17.009 4 18.2537V53.7463C4 54.991 5.00902 56 6.2537 56L65.7463 56C66.991 56 68 54.991 68 53.7463Z"/>
    <path fill="none" stroke="#00A5FF" stroke-miterlimit="10" stroke-width="0.1" d="M36 65C52.0163 65 65 52.0163 65 36C65 19.9837 52.0163 7 36 7C19.9837 7 7 19.9837 7 36C7 52.0163 19.9837 65 36 65Z"/>
  </g>
  <g id="line-supplement">
    <path fill="none" stroke="#000" stroke-linecap="round" stroke-linejoin="round" stroke-width="2" d="M30.9999 15.5L32.3799 30"/>
    <path fill="none" stroke="#000" stroke-linecap="round" stroke-linejoin="round" stroke-width="2" d="M32.71 39L32.2786 40L31.1173 57.5"/>
  </g>
  <g id="color">
    <path fill="#3F3F3F" stroke="#3F3F3F" stroke-linecap="round" stroke-linejoin="round" stroke-width="2" d="M56.5 13.5H45L49.5 17H55L57 19.5L51.5 29.5V35.5L60.5 18.5L56.5 13.5Z"/>
    <path fill="#D0CFCE" d="M26 40L23 59.5L23.5 60.5H47.5L48.5 59.5L45.5 40L44.5 39H43.5H27L26 40Z"/>
    <path fill="#3F3F3F" fill-rule="evenodd" d="M37 59.5V38H42.5H43.5L44.5 39L47.5 58.5L46.5 59.5H37Z" clip-rule="evenodd"/>
    <path fill="#9B9B9A" d="M31.2941 39.5L30 59L30.2157 60H40.5686L41 59L39.7059 39.5L39.2745 38.5H31.7255L31.2941 39.5Z"/>
    <path fill="none" stroke="#3F3F3F" stroke-linejoin="round" stroke-width="2" d="M41 59L39.7059 39.5L39.2745 38.5"/>
    <path fill="#D0CFCE" fill-rule="evenodd" d="M45 33L49.5 15.5L37.5 11H34L22.5 15.5H17V16L19 17L25.0923 26.8415L26.5 33H45Z" clip-rule="evenodd"/>
    <path fill="#3F3F3F" fill-rule="evenodd" d="M35 33V11H38L50 15.5L45.5 33H35Z" clip-rule="evenodd"/>
    <path fill="#9B9B9A" d="M41 15.5L39.1667 33H31.6296L30 15.5L34.6852 11H36.1111L41 15.5Z"/>
    <path fill="none" stroke="#3F3F3F" stroke-linecap="round" stroke-linejoin="round" stroke-width="2" d="M39.3672 32.9357L41 15.5"/>
    <path fill="#9B9B9A" stroke="#9B9B9A" stroke-width="2" d="M27 15.5L25 27L18 15.5H27Z"/>
    <rect x="27" y="34" width="18" height="4" fill="#d0cfce"/>
    <g>
      <rect x="37" y="34" width="8" height="4" fill="#3F3F3F"/>
      <rect x="37" y="34" width="8" height="4" fill="#3F3F3F"/>
    </g>
    <rect x="33" y="34" width="5" height="4" fill="#9B9B9A"/>
    <path fill="#3F3F3F" d="M33 5H38L37 11H34L33 5Z"/>
  </g>
  <g id="line">
    <path fill="none" stroke="#000" stroke-linejoin="round" stroke-width="2" d="M26 39.5L23 59L23.5 60H47.5L48.5 59L45.5 39.5L44.5 38.5H43.5H27L26 39.5Z"/>
    <path fill="#000" d="M49.5 15.5L50.4685 15.749C50.5957 15.2542 50.3295 14.7431 49.8511 14.5637L49.5 15.5ZM45 33V34C45.4564 34 45.8548 33.691 45.9685 33.249L45 33ZM37.5 11L37.8511 10.0637C37.7388 10.0216 37.6199 10 37.5 10V11ZM34 11V10C33.8753 10 33.7517 10.0233 33.6356 10.0688L34 11ZM22.5 15.5V16.5C22.6247 16.5 22.7483 16.4767 22.8644 16.4312L22.5 15.5ZM17 15.5V14.5C16.4477 14.5 16 14.9477 16 15.5H17ZM17 16H16C16 16.3788 16.214 16.725 16.5528 16.8944L17 16ZM19 17L19.8503 16.4736C19.7526 16.316 19.6131 16.1885 19.4472 16.1056L19 17ZM25.0923 26.8415L26.0672 26.6186C26.0427 26.5113 26.0006 26.4087 25.9426 26.3151L25.0923 26.8415ZM26.5 33L25.5251 33.2228C25.6291 33.6775 26.0336 34 26.5 34V33ZM48.5315 15.251L44.0315 32.751L45.9685 33.249L50.4685 15.749L48.5315 15.251ZM37.1489 11.9363L49.1489 16.4363L49.8511 14.5637L37.8511 10.0637L37.1489 11.9363ZM34 12H37.5V10H34V12ZM22.8644 16.4312L34.3644 11.9312L33.6356 10.0688L22.1356 14.5688L22.8644 16.4312ZM17 16.5H22.5V14.5H17V16.5ZM18 16V15.5H16V16H18ZM19.4472 16.1056L17.4472 15.1056L16.5528 16.8944L18.5528 17.8944L19.4472 16.1056ZM25.9426 26.3151L19.8503 16.4736L18.1497 17.5264L24.2421 27.3678L25.9426 26.3151ZM27.4749 32.7772L26.0672 26.6186L24.1175 27.0643L25.5251 33.2228L27.4749 32.7772ZM45 32H26.5V34H45V32Z"/>
    <path fill="none" stroke="#000" stroke-linecap="round" stroke-linejoin="round" stroke-width="2" d="M52.5 13.5H56.5L60.5 18.5L51.5 35.5V29.5L57 19.5L55 17H49.5"/>
    <path fill="none" stroke="#000" stroke-linecap="round" stroke-linejoin="round" stroke-width="2" d="M41 15.5L39.6497 30"/>
    <path fill="none" stroke="#000" stroke-linecap="round" stroke-linejoin="round" stroke-width="2" d="M39.2745 38.5L39.7059 39.5L40.8673 57"/>
    <path fill="none" stroke="#000" stroke-linejoin="round" stroke-width="2" d="M33 5H38L37 11H34L33 5Z"/>
    <path fill="none" stroke="#000" stroke-linecap="round" stroke-linejoin="round" stroke-width="2" d="M21.5 15.5H41"/>
    <path fill="none" stroke="#000" stroke-linecap="round" stroke-width="2" d="M26.9888 15.5745L25.6937 22.9311"/>
    <path fill="none" stroke="#000" stroke-linecap="round" stroke-width="2" d="M28 33V36"/>
    <path fill="none" stroke="#000" stroke-linecap="round" stroke-width="2" d="M44 33V38"/>
  </g>
</svg>

<svg viewBox="0 0 72 72" xmlns="http://www.w3.org/2000/svg"><path fill="#B3B3B3" d="M68 4v64H4V4h64zm4-4H0v72h72V0z"/><path fill="none" stroke="#00A5FF" stroke-miterlimit="10" stroke-width=".1" d="M12.923 10.958h46.154A1.923 1.923 0 0161 12.881v46.154a1.923 1.923 0 01-1.923 1.923H12.923A1.923 1.923 0 0111 59.035V12.881a1.923 1.923 0 011.923-1.923v0z"/><path fill="none" stroke="#00A5FF" stroke-miterlimit="10" stroke-width=".1" d="M53.746 4H18.254A2.254 2.254 0 0016 6.254v59.492A2.254 2.254 0 0018.254 68h35.492A2.254 2.254 0 0056 65.746V6.254A2.254 2.254 0 0053.746 4z"/><path fill="none" stroke="#00A5FF" stroke-miterlimit="10" stroke-width=".1" d="M68 53.746V18.254A2.254 2.254 0 0065.746 16H6.254A2.254 2.254 0 004 18.254v35.492A2.254 2.254 0 006.254 56h59.492A2.254 2.254 0 0068 53.746z"/><path fill="none" stroke="#00A5FF" stroke-miterlimit="10" stroke-width=".1" d="M36 65c16.016 0 29-12.984 29-29S52.016 7 36 7 7 19.984 7 36s12.984 29 29 29z"/><g stroke-linecap="round" stroke-miterlimit="10" stroke-width="6" stroke="#fff" fill="none" stroke-linejoin="round"><path d="M31 15.5L32.38 30m.33 9l-.431 1-1.162 17.5"/><path d="M26 39.5L23 59l.5 1h24l1-1-3-19.5-1-1H27l-1 1zm23.5-24l.968.249a1 1 0 00-.617-1.185l-.351.936zM45 33v1a1 1 0 00.968-.751L45 33zm-7.5-22l.351-.936A1 1 0 0037.5 10v1zM34 11v-1a.999.999 0 00-.364.069L34 11zm-11.5 4.5v1a.999.999 0 00.364-.069L22.5 15.5zm-5.5 0v-1a1 1 0 00-1 1h1zm0 .5h-1a1 1 0 00.553.894L17 16zm2 1l.85-.526a1 1 0 00-.403-.368L19 17zm6.092 9.841l.975-.222a.998.998 0 00-.124-.304l-.85.526zM26.5 33l-.975.223A1 1 0 0026.5 34v-1zm22.032-17.749l-4.5 17.5 1.937.498 4.5-17.5-1.938-.498zm-11.383-3.315l12 4.5.702-1.872-12-4.5-.702 1.872zM34 12h3.5v-2H34v2zm-11.136 4.431l11.5-4.5-.728-1.862-11.5 4.5.728 1.862zM17 16.5h5.5v-2H17v2zm1-.5v-.5h-2v.5h2zm1.447.106l-2-1-.894 1.788 2 1 .894-1.788zm6.496 10.21l-6.093-9.842-1.7 1.052 6.092 9.842 1.7-1.053zm1.532 6.461l-1.408-6.158-1.95.445 1.408 6.159 1.95-.446zM45 32H26.5v2H45v-2z"/><path d="M52.5 13.5h4l4 5-9 17v-6l5.5-10-2-2.5h-5.5M41 15.5L39.65 30m-.375 8.5l.43 1L40.868 57M33 5h5l-1 6h-3l-1-6zM21.5 15.5H41m-14.011.075l-1.295 7.356M28 33v3m16-3v5"/></g><path d="M31 15.5L32.38 30m.33 9l-.431 1-1.162 17.5" fill="none" stroke="#000" stroke-linecap="round" stroke-linejoin="round" stroke-width="2"/><path fill="#3F3F3F" stroke="#3F3F3F" stroke-linecap="round" stroke-linejoin="round" stroke-width="2" d="M56.5 13.5H45l4.5 3.5H55l2 2.5-5.5 10v6l9-17-4-5z"/><path fill="#D0CFCE" d="M26 40l-3 19.5.5 1h24l1-1-3-19.5-1-1H27l-1 1z"/><path fill="#3F3F3F" fill-rule="evenodd" d="M37 59.5V38h6.5l1 1 3 19.5-1 1H37z" clip-rule="evenodd"/><path fill="#9B9B9A" d="M31.294 39.5L30 59l.216 1h10.353L41 59l-1.294-19.5-.431-1h-7.55l-.43 1z"/><path fill="none" stroke="#3F3F3F" stroke-linejoin="round" stroke-width="2" d="M41 59l-1.294-19.5-.431-1"/><path fill="#D0CFCE" fill-rule="evenodd" d="M45 33l4.5-17.5-12-4.5H34l-11.5 4.5H17v.5l2 1 6.092 9.841L26.5 33H45z" clip-rule="evenodd"/><path fill="#3F3F3F" fill-rule="evenodd" d="M35 33V11h3l12 4.5L45.5 33H35z" clip-rule="evenodd"/><path fill="#9B9B9A" d="M41 15.5L39.167 33H31.63L30 15.5l4.685-4.5h1.426L41 15.5z"/><path fill="none" stroke="#3F3F3F" stroke-linecap="round" stroke-linejoin="round" stroke-width="2" d="M39.367 32.936L41 15.5"/><path fill="#9B9B9A" stroke="#9B9B9A" stroke-width="2" d="M27 15.5L25 27l-7-11.5h9z"/><path fill="#d0cfce" d="M27 34h18v4H27z"/><g fill="#3F3F3F"><path d="M37 34h8v4h-8z"/><path d="M37 34h8v4h-8z"/></g><path fill="#9B9B9A" d="M33 34h5v4h-5z"/><path fill="#3F3F3F" d="M33 5h5l-1 6h-3l-1-6z"/><g><path fill="none" stroke="#000" stroke-linejoin="round" stroke-width="2" d="M26 39.5L23 59l.5 1h24l1-1-3-19.5-1-1H27l-1 1z"/><path d="M49.5 15.5l.968.249a1 1 0 00-.617-1.185l-.351.936zM45 33v1a1 1 0 00.968-.751L45 33zm-7.5-22l.351-.936A1 1 0 0037.5 10v1zM34 11v-1a.999.999 0 00-.364.069L34 11zm-11.5 4.5v1a.999.999 0 00.364-.069L22.5 15.5zm-5.5 0v-1a1 1 0 00-1 1h1zm0 .5h-1a1 1 0 00.553.894L17 16zm2 1l.85-.526a1 1 0 00-.403-.368L19 17zm6.092 9.841l.975-.222a.998.998 0 00-.124-.304l-.85.526zM26.5 33l-.975.223A1 1 0 0026.5 34v-1zm22.032-17.749l-4.5 17.5 1.937.498 4.5-17.5-1.938-.498zm-11.383-3.315l12 4.5.702-1.872-12-4.5-.702 1.872zM34 12h3.5v-2H34v2zm-11.136 4.431l11.5-4.5-.728-1.862-11.5 4.5.728 1.862zM17 16.5h5.5v-2H17v2zm1-.5v-.5h-2v.5h2zm1.447.106l-2-1-.894 1.788 2 1 .894-1.788zm6.496 10.21l-6.093-9.842-1.7 1.052 6.092 9.842 1.7-1.053zm1.532 6.461l-1.408-6.158-1.95.445 1.408 6.159 1.95-.446zM45 32H26.5v2H45v-2z"/><path fill="none" stroke="#000" stroke-linecap="round" stroke-linejoin="round" stroke-width="2" d="M52.5 13.5h4l4 5-9 17v-6l5.5-10-2-2.5h-5.5M41 15.5L39.65 30m-.375 8.5l.43 1L40.868 57"/><path fill="none" stroke="#000" stroke-linejoin="round" stroke-width="2" d="M33 5h5l-1 6h-3l-1-6z"/><path fill="none" stroke="#000" stroke-linecap="round" stroke-linejoin="round" stroke-width="2" d="M21.5 15.5H41"/><path fill="none" stroke="#000" stroke-linecap="round" stroke-width="2" d="M26.989 15.575l-1.295 7.356M28 33v3m16-3v5"/></g></svg>
